X:1
T:Monks Gate, 11.11.12.11
T:Monks Gate, 11.11.12.11
T:Arranged by Ralph Vaughan Williams, 1904
T:Public Domain Courtesy of the Cyber Hymnal™
C:Arranged by Ralph Vaughan Williams, 1904
Z:Public Domain
Z:Courtesy of the Cyber Hymnal™
%%score ( 1 2 ) ( 3 4 )
L:1/8
M:none
K:D
V:1 treble 
V:2 treble 
V:3 bass 
V:4 bass 
V:1
"^Brightly" D3 E | [DF]2 [A,D]2 FG [CA]2 | [B,B]4 [CA]4 | [DA]2 [A,D]2 [A,C]2 [A,D]4 D3 E | %4
 [DF]2 [A,D]2 FG [CA]2 | [B,B]4 [CA]4 | [DA]2 [A,D]2 [A,C]2 [A,D]4 A4 | %7
 [Fd]2 [FB]2 [Gc]2 [Fd][Ec] | [DB]6 [EA]2 | FE [A,D]2 [DF]2 [DG]2 | [CA]6 [Dd]2 | A3 z A BA GF | %12
 E2 [CB]2 [DA]2 [B,D]2 | [A,C]2 [A,D]2 |] %14
V:2
 A,4 | x4 D2 x2 | x8 | x10 A,4 | x4 D2 x2 | x8 | x10 D3 E | x8 | x8 | D2 x6 | x8 | %11
 C2 (D2 D2) D2 x | E2 x6 | x4 |] %14
V:3
 F,3 G, | [D,A,]2 [D,F,]2 [B,,D,]2 [A,,E,]2 | [G,,G,]4 [G,A,]4 | %3
 [F,A,]2 [F,A,]2 [E,G,]2 [D,F,]4 F,3 G, | [D,A,]2 [D,F,]2 [B,,D,]2 [A,,E,]2 | [G,,G,]4 [G,A,]4 | %6
 [F,A,]2 [F,A,]2 [E,G,]2 [D,F,]4 F,4 | [B,,B,]2 [D,B,]2 [E,B,]2 [F,^A,]2 | %8
 [G,B,]4 [B,,G,]2 [C,E,]2 | [D,A,]2 [F,A,]2 [D,F,]2 [B,,D,]2 | E,4 [G,A,]2 [F,A,]2 | %11
 [E,G,]2 [D,F,]2 G,2 [E,B,]2 x | [A,C]2 [G,C]2 [F,G,]2 [D,F,]2 | [A,,G,]2 [D,F,]2 |] %14
V:4
 D,4 | x8 | x8 | x10 D,4 | x8 | x8 | x10 D,3 C, | x8 | x8 | x8 | A,,2 A,2 x4 | x4 G,2 x3 | x8 | %13
 x4 |] %14

